Logo.svg

<svg fill="none" height="25" viewBox="0 0 146 25" width="146" xmlns="http://www.w3.org/2000/svg"><path d="m4.94318.727272v23.272728h-4.9204527v-23.272728zm4.0483 0h6.06822l6.4091 15.636328h.2727l6.4091-15.636328h6.0682v23.272728h-4.7728v-15.14773h-.1932l-6.0227 15.03413h-3.25l-6.0227-15.09095h-.1932v15.20455h-4.77272zm29.28122 23.272728v-23.272728h9.3182c1.7121 0 3.1402.253788 4.2841.761368 1.1439.50757 2.0038 1.21212 2.5795 2.11363.5758.89394.8637 1.92425.8637 3.09091 0 .90909-.1818 1.70834-.5455 2.39773-.3636.68182-.8636 1.24239-1.5 1.68179-.6288.4318-1.3485.7387-2.1591.9205v.2273c.8864.0378 1.7159.2878 2.4887.75.7803.4621 1.4129 1.1098 1.8977 1.9431.4848.8258.7273 1.8106.7273 2.9546 0 1.2348-.3068 2.3371-.9205 3.3068-.606.9621-1.5038 1.7235-2.6932 2.2841s-2.6553.8409-4.3977.8409zm4.9205-4.0227h4.0113c1.3713 0 2.3713-.2614 3-.7841.6288-.5303.9432-1.2349.9432-2.1137 0-.6439-.1553-1.2121-.4659-1.7045s-.7538-.8788-1.3295-1.1591c-.5682-.2803-1.2462-.4204-2.0341-.4204h-4.125zm0-9.5114h3.6477c.6743 0 1.2727-.1174 1.7955-.3523.5303-.24239.9469-.5833 1.25-1.02269.3106-.43939.4659-.96591.4659-1.57955 0-.84091-.2993-1.51894-.8978-2.03409-.5909-.51515-1.4318-.77273-2.5227-.77273h-3.7386zm20.2471 13.5341h-5.2727l8.0341-23.272728h6.3409l8.0227 23.272728h-5.2727l-5.8295-17.95455h-.1819zm-.3295-9.1477h12.4545v3.8409h-12.4545zm32.3494-7.43185c-.0909-.91666-.481-1.62878-1.1704-2.13636s-1.625-.76136-2.8068-.76136c-.8031 0-1.4811.11363-2.0341.34091-.5531.21969-.9773.52651-1.2728.92045-.2878.39394-.4318.84091-.4318 1.34091-.0151.41667.072.7803.2614 1.09091.197.31061.4659.57954.8068.80682.3409.21969.7348.41288 1.1818.57954.447.15909.9243.29546 1.4318.40913l2.0909.5c1.0152.2272 1.947.5303 2.7955.9091.8485.3787 1.5833.8447 2.2045 1.3977.6213.553 1.1023 1.2045 1.4432 1.9545.3488.75.5268 1.6099.5338 2.5796-.007 1.4242-.371 2.6591-1.0906 3.7045-.7121 1.0379-1.7424 1.8447-3.0909 2.4205-1.3409.5682-2.9583.8522-4.8523.8522-1.8788 0-3.5151-.2878-4.9091-.8636-1.3863-.5757-2.4697-1.428-3.25-2.5568-.7727-1.1364-1.178-2.5417-1.2159-4.2159h4.7614c.053.7803.2765 1.4318.6704 1.9545.4016.5152.9357.9053 1.6023 1.1705.6743.2576 1.4356.3863 2.2841.3863.8333 0 1.5568-.1212 2.1705-.3636.6212-.2424 1.1022-.5795 1.4431-1.0114.341-.4318.5114-.928.5114-1.4886 0-.5227-.1553-.9621-.4659-1.3182-.303-.356-.75-.6591-1.3409-.9091-.5833-.25-1.2993-.4772-2.1477-.6818l-2.5341-.6363c-1.9621-.4773-3.5114-1.2235-4.6478-2.2387-1.1363-1.0151-1.7007-2.38256-1.6931-4.10226-.0076-1.40909.3674-2.64015 1.125-3.69318.7651-1.05303 1.8144-1.875 3.1477-2.46591 1.3333-.590905 2.8485-.88636 4.5454-.88636 1.7273 0 3.2349.295455 4.5228.88636 1.2954.59091 2.303 1.41288 3.0227 2.46591s1.0905 2.27273 1.1135 3.65909zm20.9688 0c-.091-.91666-.481-1.62878-1.17-2.13636-.69-.50758-1.625-.76136-2.807-.76136-.803 0-1.481.11363-2.034.34091-.553.21969-.978.52651-1.273.92045-.288.39394-.432.84091-.432 1.34091-.015.41667.072.7803.261 1.09091.197.31061.466.57954.807.80682.341.21969.735.41288 1.182.57954.447.15909.924.29546 1.432.40913l2.091.5c1.015.2272 1.947.5303 2.795.9091.849.3787 1.584.8447 2.205 1.3977s1.102 1.2045 1.443 1.9545c.348.75.526 1.6099.534 2.5796-.008 1.4242-.371 2.6591-1.091 3.7045-.712 1.0379-1.742 1.8447-3.091 2.4205-1.341.5682-2.958.8522-4.852.8522-1.879 0-3.515-.2878-4.909-.8636-1.386-.5757-2.47-1.428-3.25-2.5568-.773-1.1364-1.178-2.5417-1.216-4.2159h4.761c.053.7803.277 1.4318.671 1.9545.401.5152.935.9053 1.602 1.1705.674.2576 1.436.3863 2.284.3863.833 0 1.557-.1212 2.171-.3636.621-.2424 1.102-.5795 1.443-1.0114.341-.4318.511-.928.511-1.4886 0-.5227-.155-.9621-.466-1.3182-.303-.356-.75-.6591-1.341-.9091-.583-.25-1.299-.4772-2.147-.6818l-2.534-.6363c-1.963-.4773-3.512-1.2235-4.648-2.2387-1.137-1.0151-1.701-2.38256-1.693-4.10226-.008-1.40909.367-2.64015 1.125-3.69318.765-1.05303 1.814-1.875 3.147-2.46591 1.334-.590905 2.849-.88636 4.546-.88636 1.727 0 3.235.295455 4.523.88636 1.295.59091 2.303 1.41288 3.022 2.46591.72 1.05303 1.091 2.27273 1.114 3.65909zm6.98-6.693178h5.511l5.307 10.022728h.228l5.306-10.022728h5.512l-8.489 15.045428v8.2273h-4.886v-8.2273z" fill="#fff"/></svg>

<svg width="146" height="25" viewBox="0 0 146 25" fill="none" xmlns="http://www.w3.org/2000/svg">
<path d="M4.94318 0.727272V24H0.0227273V0.727272H4.94318ZM8.99148 0.727272H15.0597L21.4688 16.3636H21.7415L28.1506 0.727272H34.2188V24H29.446V8.85227H29.2528L23.2301 23.8864H19.9801L13.9574 8.79545H13.7642V24H8.99148V0.727272ZM38.2727 24V0.727272H47.5909C49.303 0.727272 50.7311 0.98106 51.875 1.48864C53.0189 1.99621 53.8788 2.70076 54.4545 3.60227C55.0303 4.49621 55.3182 5.52652 55.3182 6.69318C55.3182 7.60227 55.1364 8.40152 54.7727 9.09091C54.4091 9.77273 53.9091 10.3333 53.2727 10.7727C52.6439 11.2045 51.9242 11.5114 51.1136 11.6932V11.9205C52 11.9583 52.8295 12.2083 53.6023 12.6705C54.3826 13.1326 55.0152 13.7803 55.5 14.6136C55.9848 15.4394 56.2273 16.4242 56.2273 17.5682C56.2273 18.803 55.9205 19.9053 55.3068 20.875C54.7008 21.8371 53.803 22.5985 52.6136 23.1591C51.4242 23.7197 49.9583 24 48.2159 24H38.2727ZM43.1932 19.9773H47.2045C48.5758 19.9773 49.5758 19.7159 50.2045 19.1932C50.8333 18.6629 51.1477 17.9583 51.1477 17.0795C51.1477 16.4356 50.9924 15.8674 50.6818 15.375C50.3712 14.8826 49.928 14.4962 49.3523 14.2159C48.7841 13.9356 48.1061 13.7955 47.3182 13.7955H43.1932V19.9773ZM43.1932 10.4659H46.8409C47.5152 10.4659 48.1136 10.3485 48.6364 10.1136C49.1667 9.87121 49.5833 9.5303 49.8864 9.09091C50.197 8.65152 50.3523 8.125 50.3523 7.51136C50.3523 6.67045 50.053 5.99242 49.4545 5.47727C48.8636 4.96212 48.0227 4.70454 46.9318 4.70454H43.1932V10.4659ZM63.4403 24H58.1676L66.2017 0.727272H72.5426L80.5653 24H75.2926L69.4631 6.04545H69.2812L63.4403 24ZM63.1108 14.8523H75.5653V18.6932H63.1108V14.8523ZM95.4602 7.42045C95.3693 6.50379 94.9792 5.79167 94.2898 5.28409C93.6004 4.77651 92.6648 4.52273 91.483 4.52273C90.6799 4.52273 90.0019 4.63636 89.4489 4.86364C88.8958 5.08333 88.4716 5.39015 88.1761 5.78409C87.8883 6.17803 87.7443 6.625 87.7443 7.125C87.7292 7.54167 87.8163 7.9053 88.0057 8.21591C88.2027 8.52652 88.4716 8.79545 88.8125 9.02273C89.1534 9.24242 89.5473 9.43561 89.9943 9.60227C90.4413 9.76136 90.9186 9.89773 91.4261 10.0114L93.517 10.5114C94.5322 10.7386 95.464 11.0417 96.3125 11.4205C97.161 11.7992 97.8958 12.2652 98.517 12.8182C99.1383 13.3712 99.6193 14.0227 99.9602 14.7727C100.309 15.5227 100.487 16.3826 100.494 17.3523C100.487 18.7765 100.123 20.0114 99.4034 21.0568C98.6913 22.0947 97.661 22.9015 96.3125 23.4773C94.9716 24.0455 93.3542 24.3295 91.4602 24.3295C89.5814 24.3295 87.9451 24.0417 86.5511 23.4659C85.1648 22.8902 84.0814 22.0379 83.3011 20.9091C82.5284 19.7727 82.1231 18.3674 82.0852 16.6932H86.8466C86.8996 17.4735 87.1231 18.125 87.517 18.6477C87.9186 19.1629 88.4527 19.553 89.1193 19.8182C89.7936 20.0758 90.5549 20.2045 91.4034 20.2045C92.2367 20.2045 92.9602 20.0833 93.5739 19.8409C94.1951 19.5985 94.6761 19.2614 95.017 18.8295C95.358 18.3977 95.5284 17.9015 95.5284 17.3409C95.5284 16.8182 95.3731 16.3788 95.0625 16.0227C94.7595 15.6667 94.3125 15.3636 93.7216 15.1136C93.1383 14.8636 92.4223 14.6364 91.5739 14.4318L89.0398 13.7955C87.0777 13.3182 85.5284 12.572 84.392 11.5568C83.2557 10.5417 82.6913 9.17424 82.6989 7.45454C82.6913 6.04545 83.0663 4.81439 83.8239 3.76136C84.589 2.70833 85.6383 1.88636 86.9716 1.29545C88.3049 0.704545 89.8201 0.40909 91.517 0.40909C93.2443 0.40909 94.7519 0.704545 96.0398 1.29545C97.3352 1.88636 98.3428 2.70833 99.0625 3.76136C99.7822 4.81439 100.153 6.03409 100.176 7.42045H95.4602ZM116.429 7.42045C116.338 6.50379 115.948 5.79167 115.259 5.28409C114.569 4.77651 113.634 4.52273 112.452 4.52273C111.649 4.52273 110.971 4.63636 110.418 4.86364C109.865 5.08333 109.44 5.39015 109.145 5.78409C108.857 6.17803 108.713 6.625 108.713 7.125C108.698 7.54167 108.785 7.9053 108.974 8.21591C109.171 8.52652 109.44 8.79545 109.781 9.02273C110.122 9.24242 110.516 9.43561 110.963 9.60227C111.41 9.76136 111.887 9.89773 112.395 10.0114L114.486 10.5114C115.501 10.7386 116.433 11.0417 117.281 11.4205C118.13 11.7992 118.865 12.2652 119.486 12.8182C120.107 13.3712 120.588 14.0227 120.929 14.7727C121.277 15.5227 121.455 16.3826 121.463 17.3523C121.455 18.7765 121.092 20.0114 120.372 21.0568C119.66 22.0947 118.63 22.9015 117.281 23.4773C115.94 24.0455 114.323 24.3295 112.429 24.3295C110.55 24.3295 108.914 24.0417 107.52 23.4659C106.134 22.8902 105.05 22.0379 104.27 20.9091C103.497 19.7727 103.092 18.3674 103.054 16.6932H107.815C107.868 17.4735 108.092 18.125 108.486 18.6477C108.887 19.1629 109.421 19.553 110.088 19.8182C110.762 20.0758 111.524 20.2045 112.372 20.2045C113.205 20.2045 113.929 20.0833 114.543 19.8409C115.164 19.5985 115.645 19.2614 115.986 18.8295C116.327 18.3977 116.497 17.9015 116.497 17.3409C116.497 16.8182 116.342 16.3788 116.031 16.0227C115.728 15.6667 115.281 15.3636 114.69 15.1136C114.107 14.8636 113.391 14.6364 112.543 14.4318L110.009 13.7955C108.046 13.3182 106.497 12.572 105.361 11.5568C104.224 10.5417 103.66 9.17424 103.668 7.45454C103.66 6.04545 104.035 4.81439 104.793 3.76136C105.558 2.70833 106.607 1.88636 107.94 1.29545C109.274 0.704545 110.789 0.40909 112.486 0.40909C114.213 0.40909 115.721 0.704545 117.009 1.29545C118.304 1.88636 119.312 2.70833 120.031 3.76136C120.751 4.81439 121.122 6.03409 121.145 7.42045H116.429ZM123.409 0.727272H128.92L134.227 10.75H134.455L139.761 0.727272H145.273L136.784 15.7727V24H131.898V15.7727L123.409 0.727272Z" fill="white"/>
</svg>
